X: 15
T: Egan's
Z: Finnbarr
S: https://thesession.org/tunes/39#setting49524
R: polka
M: 2/4
L: 1/8
K: Dmaj
|:fA BA|fA BA|d2 e>f|ed BA|
fA BA|fA BA|d2 e>f|ed d2:|
|:fa a>f|ed BA|d2 e>f|ed BA|
fa a>f|ed BA|d2 e>f|ed d2:|

